img/process-1.svg

<svg width="82" height="82" viewBox="0 0 82 82" fill="none" xmlns="http://www.w3.org/2000/svg">
<path d="M67.5683 39.6333V69.7H59.3683C58.6136 69.7 58.0017 70.3119 58.0017 71.0667V79.2667H7.43499V2.73333H67.5683V20.5H70.3017V1.36667C70.3017 0.611925 69.6897 0 68.935 0H6.06833C5.31359 0 4.70166 0.611925 4.70166 1.36667V80.6333C4.70166 81.3881 5.31359 82 6.06833 82H59.3683C59.7307 81.9991 60.078 81.8553 60.3346 81.5996L69.9012 72.0329C70.0155 71.9167 70.1081 71.7811 70.1746 71.6325C70.1937 71.5901 70.2046 71.5491 70.2197 71.5054C70.2589 71.3906 70.2829 71.2712 70.2907 71.15C70.2907 71.1213 70.3071 71.0954 70.3071 71.0667V39.6333H67.5683ZM60.735 77.3342V72.4333H65.6359L60.735 77.3342Z" fill="url(#paint0_linear)"/>
<path d="M76.0512 22.9505C74.3639 21.3375 71.7061 21.3375 70.0188 22.9505L46.1021 46.8671C45.8458 47.1234 45.7017 47.4709 45.7017 47.8334V51.9334C45.7017 52.6881 46.3136 53.3 47.0683 53.3H51.1683C51.5308 53.3 51.8783 53.1558 52.1346 52.8996L76.0512 28.9829C77.7141 27.316 77.7141 24.6175 76.0512 22.9505ZM50.6025 50.5667H48.435V48.3992L65.5183 31.3158L67.6859 33.4834L50.6025 50.5667ZM69.6183 31.5509L67.4508 29.3834L68.935 27.8992L71.1025 30.0667L69.6183 31.5509ZM74.1188 27.0505L73.035 28.1342L70.8675 25.9667L71.9512 24.8829C72.5577 24.3037 73.5123 24.3037 74.1188 24.8829C74.7146 25.4826 74.7146 26.4509 74.1188 27.0505Z" fill="url(#paint1_linear)"/>
<path d="M17.0018 17.7666C13.9827 17.7666 11.5352 20.2141 11.5352 23.2333C11.5352 26.2524 13.9827 28.6999 17.0018 28.6999C20.021 28.6999 22.4685 26.2524 22.4685 23.2333C22.4685 20.2141 20.021 17.7666 17.0018 17.7666ZM17.0018 25.9666C15.4922 25.9666 14.2685 24.7429 14.2685 23.2333C14.2685 21.7236 15.4922 20.4999 17.0018 20.4999C18.5115 20.4999 19.7352 21.7236 19.7352 23.2333C19.7352 24.7429 18.5113 25.9666 17.0018 25.9666Z" fill="url(#paint2_linear)"/>
<path d="M42.5678 6.43295L40.6353 4.50049L37.5015 7.63425L34.3678 4.50049L32.4353 6.43295L35.5691 9.56672L32.4353 12.7005L34.3678 14.633L37.5015 11.4992L40.6353 14.633L42.5678 12.7005L39.434 9.56672L42.5678 6.43295Z" fill="url(#paint3_linear)"/>
<path d="M55.2684 16.3999C52.2493 16.3999 49.8018 18.8474 49.8018 21.8666C49.8018 24.8857 52.2493 27.3332 55.2684 27.3332C58.2876 27.3332 60.7351 24.8857 60.7351 21.8666C60.7351 18.8474 58.2876 16.3999 55.2684 16.3999ZM55.2684 24.5999C53.7588 24.5999 52.5351 23.3762 52.5351 21.8666C52.5351 20.3569 53.7588 19.1332 55.2684 19.1332C56.7781 19.1332 58.0018 20.3569 58.0018 21.8666C58.0018 23.3762 56.7779 24.5999 55.2684 24.5999Z" fill="url(#paint4_linear)"/>
<path d="M21.1017 56.0332C18.0825 56.0332 15.635 58.4807 15.635 61.4999C15.635 64.519 18.0825 66.9665 21.1017 66.9665C24.1208 66.9665 26.5683 64.519 26.5683 61.4999C26.5683 58.4807 24.1208 56.0332 21.1017 56.0332ZM21.1017 64.2332C19.592 64.2332 18.3683 63.0095 18.3683 61.4999C18.3683 59.9902 19.592 58.7665 21.1017 58.7665C22.6113 58.7665 23.835 59.9902 23.835 61.4999C23.835 63.0095 22.6112 64.2332 21.1017 64.2332Z" fill="url(#paint5_linear)"/>
<path d="M27.5343 37.8661L25.6019 35.9336L22.4681 39.0674L19.3343 35.9336L17.4019 37.8661L20.5356 40.9998L17.4019 44.1336L19.3343 46.0661L22.4681 42.9323L25.6019 46.0661L27.5343 44.1336L24.4006 40.9998L27.5343 37.8661Z" fill="url(#paint6_linear)"/>
<path d="M61.7011 56.9994L59.7686 55.0669L56.6348 58.2007L53.5011 55.0669L51.5686 56.9994L54.7024 60.1331L51.5686 63.2669L53.5011 65.1994L56.6348 62.0656L59.7686 65.1994L61.7011 63.2669L58.5673 60.1331L61.7011 56.9994Z" fill="url(#paint7_linear)"/>
<path d="M29.6379 27.3334H31.9613V24.6001H26.4946C25.7399 24.6001 25.1279 25.212 25.1279 25.9668V31.4334H27.8613V29.5201C33.7897 37.1637 33.363 47.9631 26.8499 55.115L28.874 56.9546C36.4487 48.6404 36.774 36.027 29.6379 27.3334Z" fill="url(#paint8_linear)"/>
<path d="M37.5018 62.8667C34.4827 62.8667 32.0352 65.3142 32.0352 68.3334C32.0352 71.3525 34.4827 73.8 37.5018 73.8C40.521 73.8 42.9685 71.3525 42.9685 68.3334C42.9685 65.3142 40.521 62.8667 37.5018 62.8667ZM37.5018 71.0667C35.9922 71.0667 34.7685 69.843 34.7685 68.3334C34.7685 66.8237 35.9922 65.6 37.5018 65.6C39.0115 65.6 40.2352 66.8237 40.2352 68.3334C40.2352 69.843 39.0113 71.0667 37.5018 71.0667Z" fill="url(#paint9_linear)"/>
<path d="M46.6679 19.5336L42.5679 15.4336L40.6354 17.3661L42.4025 19.1332H25.2017V21.8665H42.4025L40.6354 23.6336L42.5679 25.5661L46.6679 21.4661C47.2014 20.9324 47.2014 20.0673 46.6679 19.5336Z" fill="url(#paint10_linear)"/>
<path d="M49.8016 27.3335H44.3349V30.0668H46.5489C39.8362 37.2133 36.1103 46.6565 36.1349 56.4613V60.1335H38.8682V56.4613C38.8457 47.4045 42.2652 38.6775 48.4349 32.0471V34.1668H51.1682V28.7002C51.1682 27.9454 50.5563 27.3335 49.8016 27.3335Z" fill="url(#paint11_linear)"/>
<defs>
<linearGradient id="paint0_linear" x1="58.5318" y1="34.3061" x2="65.901" y2="63.6245" gradientUnits="userSpaceOnUse">
<stop stop-color="#FFDA67"/>
<stop offset="1" stop-color="#FF7638"/>
</linearGradient>
<linearGradient id="paint1_linear" x1="71.6272" y1="34.9441" x2="73.9434" y2="46.4755" gradientUnits="userSpaceOnUse">
<stop stop-color="#FFDA67"/>
<stop offset="1" stop-color="#FF7638"/>
</linearGradient>
<linearGradient id="paint2_linear" x1="20.5061" y1="22.3408" x2="21.3094" y2="26.3353" gradientUnits="userSpaceOnUse">
<stop stop-color="#FFDA67"/>
<stop offset="1" stop-color="#FF7638"/>
</linearGradient>
<linearGradient id="paint3_linear" x1="40.7491" y1="8.73958" x2="41.4936" y2="12.4415" gradientUnits="userSpaceOnUse">
<stop stop-color="#FFDA67"/>
<stop offset="1" stop-color="#FF7638"/>
</linearGradient>
<linearGradient id="paint4_linear" x1="58.7727" y1="20.9741" x2="59.576" y2="24.9686" gradientUnits="userSpaceOnUse">
<stop stop-color="#FFDA67"/>
<stop offset="1" stop-color="#FF7638"/>
</linearGradient>
<linearGradient id="paint5_linear" x1="24.6059" y1="60.6074" x2="25.4092" y2="64.6019" gradientUnits="userSpaceOnUse">
<stop stop-color="#FFDA67"/>
<stop offset="1" stop-color="#FF7638"/>
</linearGradient>
<linearGradient id="paint6_linear" x1="25.7157" y1="40.1727" x2="26.4601" y2="43.8746" gradientUnits="userSpaceOnUse">
<stop stop-color="#FFDA67"/>
<stop offset="1" stop-color="#FF7638"/>
</linearGradient>
<linearGradient id="paint7_linear" x1="59.8824" y1="59.306" x2="60.6269" y2="63.0079" gradientUnits="userSpaceOnUse">
<stop stop-color="#FFDA67"/>
<stop offset="1" stop-color="#FF7638"/>
</linearGradient>
<linearGradient id="paint8_linear" x1="33.0476" y1="38.1362" x2="38.748" y2="46.5925" gradientUnits="userSpaceOnUse">
<stop stop-color="#FFDA67"/>
<stop offset="1" stop-color="#FF7638"/>
</linearGradient>
<linearGradient id="paint9_linear" x1="41.0061" y1="67.4408" x2="41.8094" y2="71.4354" gradientUnits="userSpaceOnUse">
<stop stop-color="#FFDA67"/>
<stop offset="1" stop-color="#FF7638"/>
</linearGradient>
<linearGradient id="paint10_linear" x1="43.1433" y1="19.6727" x2="43.4991" y2="23.4912" gradientUnits="userSpaceOnUse">
<stop stop-color="#FFDA67"/>
<stop offset="1" stop-color="#FF7638"/>
</linearGradient>
<linearGradient id="paint11_linear" x1="48.4699" y1="41.0559" x2="53.0573" y2="51.5115" gradientUnits="userSpaceOnUse">
<stop stop-color="#FFDA67"/>
<stop offset="1" stop-color="#FF7638"/>
</linearGradient>
</defs>
</svg>

<svg width="82" height="82" viewBox="0 0 82 82" fill="none" xmlns="http://www.w3.org/2000/svg"><path d="M67.568 39.633V69.7h-8.2c-.754 0-1.366.612-1.366 1.367v8.2H7.435V2.733h60.133V20.5h2.734V1.367C70.302.612 69.69 0 68.935 0H6.068c-.754 0-1.366.612-1.366 1.367v79.266c0 .755.612 1.367 1.366 1.367h53.3c.363 0 .71-.145.967-.4l9.566-9.567a1.37 1.37 0 00.274-.4c.019-.043.03-.084.045-.128.039-.114.063-.234.07-.355 0-.029.017-.055.017-.083V39.633h-2.739zm-6.833 37.701v-4.9h4.9l-4.9 4.9z" fill="url(#paint0_linear)"/><path d="M76.051 22.95a4.365 4.365 0 00-6.032 0L46.102 46.868c-.256.256-.4.604-.4.966v4.1c0 .755.612 1.367 1.366 1.367h4.1c.363 0 .71-.144.967-.4L76.05 28.983a4.27 4.27 0 000-6.032zM50.602 50.568h-2.167V48.4l17.083-17.083 2.168 2.167-17.084 17.084zM69.618 31.55l-2.167-2.168 1.484-1.484 2.168 2.168-1.485 1.484zm4.5-4.5l-1.083 1.083-2.167-2.167 1.083-1.084a1.57 1.57 0 012.168 0c.596.6.596 1.568 0 2.168z" fill="url(#paint1_linear)"/><path d="M17.002 17.767a5.467 5.467 0 100 10.933 5.467 5.467 0 000-10.933zm0 8.2a2.733 2.733 0 110-5.467 2.733 2.733 0 010 5.467z" fill="url(#paint2_linear)"/><path d="M42.568 6.433L40.635 4.5l-3.133 3.134L34.367 4.5l-1.933 1.933 3.134 3.134-3.134 3.133 1.933 1.933 3.133-3.134 3.134 3.134 1.933-1.932-3.134-3.134 3.134-3.134z" fill="url(#paint3_linear)"/><path d="M55.268 16.4a5.467 5.467 0 100 10.933 5.467 5.467 0 000-10.933zm0 8.2a2.733 2.733 0 110-5.467 2.733 2.733 0 010 5.467z" fill="url(#paint4_linear)"/><path d="M21.102 56.033a5.467 5.467 0 100 10.934 5.467 5.467 0 000-10.934zm0 8.2a2.733 2.733 0 110-5.466 2.733 2.733 0 010 5.466z" fill="url(#paint5_linear)"/><path d="M27.534 37.866l-1.932-1.932-3.134 3.133-3.134-3.133-1.932 1.932L20.536 41l-3.134 3.134 1.932 1.932 3.134-3.134 3.134 3.134 1.932-1.932L24.401 41l3.133-3.134z" fill="url(#paint6_linear)"/><path d="M61.701 57l-1.932-1.933-3.134 3.134-3.134-3.134-1.932 1.932 3.133 3.134-3.133 3.134 1.932 1.932 3.134-3.133 3.134 3.133 1.932-1.932-3.134-3.134L61.701 57z" fill="url(#paint7_linear)"/><path d="M29.638 27.333h2.323V24.6h-5.466c-.755 0-1.367.612-1.367 1.367v5.466h2.733V29.52c5.929 7.644 5.502 18.443-1.011 25.595l2.024 1.84c7.575-8.315 7.9-20.928.764-29.622z" fill="url(#paint8_linear)"/><path d="M37.502 62.867a5.467 5.467 0 100 10.933 5.467 5.467 0 000-10.933zm0 8.2a2.733 2.733 0 110-5.467 2.733 2.733 0 010 5.467z" fill="url(#paint9_linear)"/><path d="M46.668 19.534l-4.1-4.1-1.933 1.932 1.768 1.767H25.202v2.733h17.2l-1.767 1.768 1.933 1.932 4.1-4.1a1.367 1.367 0 000-1.932z" fill="url(#paint10_linear)"/><path d="M49.802 27.334h-5.467v2.733h2.214A38.412 38.412 0 0036.135 56.46v3.672h2.733V56.46a35.709 35.709 0 019.567-24.414v2.12h2.733V28.7c0-.755-.612-1.366-1.366-1.366z" fill="url(#paint11_linear)"/><defs><linearGradient id="paint0_linear" x1="58.532" y1="34.306" x2="65.901" y2="63.624" gradientUnits="userSpaceOnUse"><stop stop-color="#FFDA67"/><stop offset="1" stop-color="#FF7638"/></linearGradient><linearGradient id="paint1_linear" x1="71.627" y1="34.944" x2="73.943" y2="46.475" gradientUnits="userSpaceOnUse"><stop stop-color="#FFDA67"/><stop offset="1" stop-color="#FF7638"/></linearGradient><linearGradient id="paint2_linear" x1="20.506" y1="22.341" x2="21.309" y2="26.335" gradientUnits="userSpaceOnUse"><stop stop-color="#FFDA67"/><stop offset="1" stop-color="#FF7638"/></linearGradient><linearGradient id="paint3_linear" x1="40.749" y1="8.74" x2="41.494" y2="12.441" gradientUnits="userSpaceOnUse"><stop stop-color="#FFDA67"/><stop offset="1" stop-color="#FF7638"/></linearGradient><linearGradient id="paint4_linear" x1="58.773" y1="20.974" x2="59.576" y2="24.969" gradientUnits="userSpaceOnUse"><stop stop-color="#FFDA67"/><stop offset="1" stop-color="#FF7638"/></linearGradient><linearGradient id="paint5_linear" x1="24.606" y1="60.607" x2="25.409" y2="64.602" gradientUnits="userSpaceOnUse"><stop stop-color="#FFDA67"/><stop offset="1" stop-color="#FF7638"/></linearGradient><linearGradient id="paint6_linear" x1="25.716" y1="40.173" x2="26.46" y2="43.875" gradientUnits="userSpaceOnUse"><stop stop-color="#FFDA67"/><stop offset="1" stop-color="#FF7638"/></linearGradient><linearGradient id="paint7_linear" x1="59.882" y1="59.306" x2="60.627" y2="63.008" gradientUnits="userSpaceOnUse"><stop stop-color="#FFDA67"/><stop offset="1" stop-color="#FF7638"/></linearGradient><linearGradient id="paint8_linear" x1="33.048" y1="38.136" x2="38.748" y2="46.593" gradientUnits="userSpaceOnUse"><stop stop-color="#FFDA67"/><stop offset="1" stop-color="#FF7638"/></linearGradient><linearGradient id="paint9_linear" x1="41.006" y1="67.441" x2="41.809" y2="71.435" gradientUnits="userSpaceOnUse"><stop stop-color="#FFDA67"/><stop offset="1" stop-color="#FF7638"/></linearGradient><linearGradient id="paint10_linear" x1="43.143" y1="19.673" x2="43.499" y2="23.491" gradientUnits="userSpaceOnUse"><stop stop-color="#FFDA67"/><stop offset="1" stop-color="#FF7638"/></linearGradient><linearGradient id="paint11_linear" x1="48.47" y1="41.056" x2="53.057" y2="51.511" gradientUnits="userSpaceOnUse"><stop stop-color="#FFDA67"/><stop offset="1" stop-color="#FF7638"/></linearGradient></defs></svg>
